images/5702198.svg

<?xml version="1.0" encoding="UTF-8"?>
<svg xmlns="http://www.w3.org/2000/svg" xmlns:xlink="http://www.w3.org/1999/xlink" width="300pt" height="300pt" viewBox="0 0 300 300" version="1.1">
<defs>
<g>
<symbol overflow="visible" id="glyph0-0">
<path style="stroke:none;" d="M 0.796875 2.828125 L 0.796875 -11.28125 L 8.796875 -11.28125 L 8.796875 2.828125 Z M 1.703125 1.9375 L 7.90625 1.9375 L 7.90625 -10.390625 L 1.703125 -10.390625 Z M 1.703125 1.9375 "/>
</symbol>
<symbol overflow="visible" id="glyph0-1">
<path style="stroke:none;" d="M 1.578125 -11.671875 L 3.703125 -11.671875 L 8.875 -1.90625 L 8.875 -11.671875 L 10.40625 -11.671875 L 10.40625 0 L 8.28125 0 L 3.109375 -9.765625 L 3.109375 0 L 1.578125 0 Z M 1.578125 -11.671875 "/>
</symbol>
<symbol overflow="visible" id="glyph0-2">
<path style="stroke:none;" d="M 1.578125 -11.671875 L 3.15625 -11.671875 L 3.15625 -6.890625 L 8.890625 -6.890625 L 8.890625 -11.671875 L 10.46875 -11.671875 L 10.46875 0 L 8.890625 0 L 8.890625 -5.5625 L 3.15625 -5.5625 L 3.15625 0 L 1.578125 0 Z M 1.578125 -11.671875 "/>
</symbol>
<symbol overflow="visible" id="glyph0-3">
<path style="stroke:none;" d="M 10.3125 -10.765625 L 10.3125 -9.109375 C 9.78125 -9.597656 9.210938 -9.960938 8.609375 -10.203125 C 8.003906 -10.453125 7.363281 -10.578125 6.6875 -10.578125 C 5.351562 -10.578125 4.332031 -10.171875 3.625 -9.359375 C 2.914062 -8.546875 2.5625 -7.367188 2.5625 -5.828125 C 2.5625 -4.285156 2.914062 -3.109375 3.625 -2.296875 C 4.332031 -1.484375 5.351562 -1.078125 6.6875 -1.078125 C 7.363281 -1.078125 8.003906 -1.195312 8.609375 -1.4375 C 9.210938 -1.6875 9.78125 -2.054688 10.3125 -2.546875 L 10.3125 -0.90625 C 9.757812 -0.53125 9.171875 -0.242188 8.546875 -0.046875 C 7.929688 0.140625 7.28125 0.234375 6.59375 0.234375 C 4.832031 0.234375 3.441406 -0.304688 2.421875 -1.390625 C 1.410156 -2.472656 0.90625 -3.953125 0.90625 -5.828125 C 0.90625 -7.703125 1.410156 -9.175781 2.421875 -10.25 C 3.441406 -11.332031 4.832031 -11.875 6.59375 -11.875 C 7.289062 -11.875 7.945312 -11.78125 8.5625 -11.59375 C 9.1875 -11.414062 9.769531 -11.140625 10.3125 -10.765625 Z M 10.3125 -10.765625 "/>
</symbol>
<symbol overflow="visible" id="glyph0-4">
<path style="stroke:none;" d="M 1.515625 -12.15625 L 2.953125 -12.15625 L 2.953125 0 L 1.515625 0 Z M 1.515625 -12.15625 "/>
</symbol>
<symbol overflow="visible" id="glyph0-5">
<path style="stroke:none;" d="M 3.15625 -10.375 L 3.15625 -5.984375 L 5.140625 -5.984375 C 5.867188 -5.984375 6.429688 -6.171875 6.828125 -6.546875 C 7.234375 -6.929688 7.4375 -7.476562 7.4375 -8.1875 C 7.4375 -8.882812 7.234375 -9.421875 6.828125 -9.796875 C 6.429688 -10.179688 5.867188 -10.375 5.140625 -10.375 Z M 1.578125 -11.671875 L 5.140625 -11.671875 C 6.441406 -11.671875 7.425781 -11.375 8.09375 -10.78125 C 8.769531 -10.1875 9.109375 -9.320312 9.109375 -8.1875 C 9.109375 -7.03125 8.769531 -6.15625 8.09375 -5.5625 C 7.425781 -4.976562 6.441406 -4.6875 5.140625 -4.6875 L 3.15625 -4.6875 L 3.15625 0 L 1.578125 0 Z M 1.578125 -11.671875 "/>
</symbol>
<symbol overflow="visible" id="glyph0-6">
<path style="stroke:none;" d="M 2.9375 -11.234375 L 2.9375 -8.75 L 5.890625 -8.75 L 5.890625 -7.640625 L 2.9375 -7.640625 L 2.9375 -2.890625 C 2.9375 -2.171875 3.03125 -1.707031 3.21875 -1.5 C 3.414062 -1.300781 3.816406 -1.203125 4.421875 -1.203125 L 5.890625 -1.203125 L 5.890625 0 L 4.421875 0 C 3.304688 0 2.535156 -0.207031 2.109375 -0.625 C 1.691406 -1.039062 1.484375 -1.796875 1.484375 -2.890625 L 1.484375 -7.640625 L 0.4375 -7.640625 L 0.4375 -8.75 L 1.484375 -8.75 L 1.484375 -11.234375 Z M 2.9375 -11.234375 "/>
</symbol>
<symbol overflow="visible" id="glyph1-0">
<path style="stroke:none;" d="M 0.640625 2.296875 L 0.640625 -9.171875 L 7.140625 -9.171875 L 7.140625 2.296875 Z M 1.375 1.578125 L 6.421875 1.578125 L 6.421875 -8.4375 L 1.375 -8.4375 Z M 1.375 1.578125 "/>
</symbol>
<symbol overflow="visible" id="glyph1-1">
<path style="stroke:none;" d="M 5.28125 -5.109375 C 5.894531 -4.972656 6.375 -4.695312 6.71875 -4.28125 C 7.0625 -3.875 7.234375 -3.363281 7.234375 -2.75 C 7.234375 -1.820312 6.910156 -1.097656 6.265625 -0.578125 C 5.617188 -0.0664062 4.703125 0.1875 3.515625 0.1875 C 3.117188 0.1875 2.707031 0.144531 2.28125 0.0625 C 1.863281 -0.0078125 1.429688 -0.125 0.984375 -0.28125 L 0.984375 -1.53125 C 1.347656 -1.320312 1.738281 -1.160156 2.15625 -1.046875 C 2.582031 -0.941406 3.023438 -0.890625 3.484375 -0.890625 C 4.285156 -0.890625 4.894531 -1.046875 5.3125 -1.359375 C 5.738281 -1.679688 5.953125 -2.144531 5.953125 -2.75 C 5.953125 -3.3125 5.753906 -3.75 5.359375 -4.0625 C 4.972656 -4.375 4.429688 -4.53125 3.734375 -4.53125 L 2.625 -4.53125 L 2.625 -5.59375 L 3.78125 -5.59375 C 4.414062 -5.59375 4.898438 -5.71875 5.234375 -5.96875 C 5.566406 -6.21875 5.734375 -6.582031 5.734375 -7.0625 C 5.734375 -7.539062 5.5625 -7.910156 5.21875 -8.171875 C 4.875 -8.429688 4.378906 -8.5625 3.734375 -8.5625 C 3.378906 -8.5625 3 -8.523438 2.59375 -8.453125 C 2.195312 -8.378906 1.757812 -8.257812 1.28125 -8.09375 L 1.28125 -9.25 C 1.757812 -9.382812 2.210938 -9.484375 2.640625 -9.546875 C 3.066406 -9.617188 3.46875 -9.65625 3.84375 -9.65625 C 4.820312 -9.65625 5.59375 -9.429688 6.15625 -8.984375 C 6.726562 -8.546875 7.015625 -7.945312 7.015625 -7.1875 C 7.015625 -6.664062 6.863281 -6.222656 6.5625 -5.859375 C 6.257812 -5.492188 5.832031 -5.242188 5.28125 -5.109375 Z M 5.28125 -5.109375 "/>
</symbol>
</g>
</defs>
<g id="surface31737">
<rect x="0" y="0" width="300" height="300" style="fill:rgb(100%,100%,100%);fill-opacity:1;stroke:none;"/>
<path style=" stroke:none;fill-rule:nonzero;fill:rgb(100%,100%,100%);fill-opacity:1;" d="M 134 151.25 L 167 151.25 L 167 174.25 L 134 174.25 Z M 134 151.25 "/>
<g style="fill:rgb(0%,0%,100%);fill-opacity:1;">
  <use xlink:href="#glyph0-1" x="134" y="166.101562"/>
  <use xlink:href="#glyph0-2" x="145.96875" y="166.101562"/>
</g>
<g style="fill:rgb(0%,0%,100%);fill-opacity:1;">
  <use xlink:href="#glyph1-1" x="158" y="170.984375"/>
</g>
<path style=" stroke:none;fill-rule:nonzero;fill:rgb(100%,100%,100%);fill-opacity:1;" d="M 159.5 151.25 L 192.5 151.25 L 192.5 174.25 L 159.5 174.25 Z M 159.5 151.25 "/>
<g style="fill:rgb(0%,0%,100%);fill-opacity:1;">
  <use xlink:href="#glyph0-1" x="159.5" y="166.101562"/>
  <use xlink:href="#glyph0-2" x="171.46875" y="166.101562"/>
</g>
<g style="fill:rgb(0%,0%,100%);fill-opacity:1;">
  <use xlink:href="#glyph1-1" x="183.5" y="170.984375"/>
</g>
<path style="fill:none;stroke-width:1.2;stroke-linecap:butt;stroke-linejoin:miter;stroke:rgb(0%,80%,0%);stroke-opacity:1;stroke-miterlimit:10;" d="M 111.75 137.25 L 130.875 137.25 "/>
<path style="fill:none;stroke-width:1.2;stroke-linecap:butt;stroke-linejoin:miter;stroke:rgb(0%,0%,0%);stroke-opacity:1;stroke-miterlimit:10;" d="M 130.875 137.25 L 150 137.25 "/>
<path style=" stroke:none;fill-rule:nonzero;fill:rgb(100%,100%,100%);fill-opacity:1;" d="M 95.75 127.75 L 111.75 127.75 L 111.75 146.75 L 95.75 146.75 Z M 95.75 127.75 "/>
<g style="fill:rgb(0%,80%,0%);fill-opacity:1;">
  <use xlink:href="#glyph0-3" x="95.75" y="142.601562"/>
  <use xlink:href="#glyph0-4" x="106.921875" y="142.601562"/>
</g>
<path style="fill:none;stroke-width:1.2;stroke-linecap:butt;stroke-linejoin:miter;stroke:rgb(0%,0%,0%);stroke-opacity:1;stroke-miterlimit:10;" d="M 150 137.25 L 169.125 137.25 "/>
<path style="fill:none;stroke-width:1.2;stroke-linecap:butt;stroke-linejoin:miter;stroke:rgb(0%,80%,0%);stroke-opacity:1;stroke-miterlimit:10;" d="M 169.125 137.25 L 188.25 137.25 "/>
<path style=" stroke:none;fill-rule:nonzero;fill:rgb(100%,100%,100%);fill-opacity:1;" d="M 142 127.75 L 158 127.75 L 158 146.75 L 142 146.75 Z M 142 127.75 "/>
<g style="fill:rgb(0%,0%,0%);fill-opacity:1;">
  <use xlink:href="#glyph0-5" x="142" y="142.601562"/>
  <use xlink:href="#glyph0-6" x="151.648438" y="142.601562"/>
</g>
<path style=" stroke:none;fill-rule:nonzero;fill:rgb(100%,100%,100%);fill-opacity:1;" d="M 180.25 127.75 L 196.25 127.75 L 196.25 146.75 L 180.25 146.75 Z M 180.25 127.75 "/>
<g style="fill:rgb(0%,80%,0%);fill-opacity:1;">
  <use xlink:href="#glyph0-3" x="180.25" y="142.601562"/>
  <use xlink:href="#glyph0-4" x="191.421875" y="142.601562"/>
</g>
</g>
</svg>

<svg xmlns="http://www.w3.org/2000/svg" xmlns:xlink="http://www.w3.org/1999/xlink" width="300pt" height="300pt" viewBox="0 0 300 300"><defs><symbol overflow="visible"><path d="M.797 2.828v-14.11h8V2.83zm.906-.89h6.203v-12.33H1.703zm0 0"/></symbol><symbol overflow="visible" id="a"><path d="M1.578-11.672h2.125l5.172 9.766v-9.766h1.53V0H8.282L3.11-9.766V0H1.577zm0 0"/></symbol><symbol overflow="visible" id="b"><path d="M1.578-11.672h1.578v4.78H8.89v-4.78h1.58V0H8.89v-5.563H3.157V0H1.578zm0 0"/></symbol><symbol overflow="visible" id="d"><path d="M10.313-10.766v1.657c-.532-.488-1.102-.85-1.704-1.093-.606-.25-1.247-.375-1.922-.375-1.336 0-2.356.406-3.063 1.22-.71.81-1.063 1.99-1.063 3.53 0 1.543.352 2.72 1.063 3.53.707.814 1.727 1.22 3.063 1.22.675 0 1.316-.117 1.92-.36.603-.25 1.173-.617 1.704-1.11v1.642c-.554.375-1.14.664-1.765.86-.617.187-1.266.28-1.953.28-1.762 0-3.153-.54-4.172-1.625C1.41-2.474.906-3.954.906-5.83c0-1.875.504-3.348 1.516-4.422 1.02-1.082 2.41-1.625 4.172-1.625.695 0 1.35.094 1.968.28.626.18 1.208.454 1.75.83zm0 0"/></symbol><symbol overflow="visible" id="e"><path d="M1.516-12.156h1.437V0H1.516zm0 0"/></symbol><symbol overflow="visible" id="f"><path d="M3.156-10.375v4.39H5.14c.727 0 1.29-.187 1.688-.562.406-.383.61-.93.61-1.64 0-.696-.204-1.235-.61-1.61-.398-.383-.96-.578-1.687-.578zm-1.578-1.297H5.14c1.3 0 2.286.297 2.954.89.676.595 1.015 1.462 1.015 2.595 0 1.156-.34 2.03-1.016 2.624-.668.586-1.653.875-2.953.875H3.157V0H1.578zm0 0"/></symbol><symbol overflow="visible" id="g"><path d="M2.938-11.234v2.484H5.89v1.11H2.94v4.75c0 .718.093 1.183.28 1.39.196.2.598.297 1.204.297h1.47V0H4.42C3.305 0 2.535-.207 2.11-.625c-.42-.414-.626-1.172-.626-2.266v-4.75H.438v-1.11h1.046v-2.484zm0 0"/></symbol><symbol overflow="visible"><path d="M.64 2.297v-11.47h6.5v11.47zm.735-.72h5.047V-8.436H1.375zm0 0"/></symbol><symbol overflow="visible" id="c"><path d="M5.28-5.11c.615.137 1.095.415 1.44.83.343.405.514.917.514 1.53 0 .93-.324 1.652-.968 2.172-.65.512-1.563.765-2.75.765-.4 0-.81-.042-1.235-.124-.417-.07-.85-.188-1.296-.344v-1.25c.364.21.754.37 1.172.483.426.106.867.156 1.328.156.8 0 1.41-.157 1.829-.47.425-.32.64-.785.64-1.39 0-.563-.2-1-.594-1.313-.387-.312-.93-.468-1.626-.468h-1.11v-1.064h1.157c.634 0 1.118-.125 1.454-.375.332-.25.5-.612.5-1.093 0-.476-.17-.847-.515-1.11-.345-.257-.84-.39-1.486-.39-.355 0-.734.04-1.14.11-.4.074-.836.195-1.313.36V-9.25c.478-.133.93-.234 1.36-.297.426-.07.83-.11 1.204-.11.976 0 1.75.227 2.312.673.57.437.86 1.04.86 1.796 0 .524-.153.965-.454 1.33-.304.366-.73.616-1.28.75zm0 0"/></symbol></defs><g><path fill="#fff" d="M0 0h300v300H0zM134 151.25h33v23h-33zm0 0"/><g fill="#00f"><use xlink:href="#a" x="134" y="166.102"/><use xlink:href="#b" x="145.969" y="166.102"/></g><use xlink:href="#c" x="158" y="170.984" fill="#00f"/><path d="M159.5 151.25h33v23h-33zm0 0" fill="#fff"/><g fill="#00f"><use xlink:href="#a" x="159.5" y="166.102"/><use xlink:href="#b" x="171.469" y="166.102"/></g><use xlink:href="#c" x="183.5" y="170.984" fill="#00f"/><path d="M111.75 137.25h19.125" stroke-width="1.2" stroke="#0c0" stroke-miterlimit="10" fill="none"/><path d="M130.875 137.25H150" stroke-width="1.2" stroke="#000" stroke-miterlimit="10" fill="none"/><path d="M95.75 127.75h16v19h-16zm0 0" fill="#fff"/><g fill="#0c0"><use xlink:href="#d" x="95.75" y="142.602"/><use xlink:href="#e" x="106.922" y="142.602"/></g><path d="M150 137.25h19.125" stroke-width="1.2" stroke="#000" stroke-miterlimit="10" fill="none"/><path d="M169.125 137.25h19.125" stroke-width="1.2" stroke="#0c0" stroke-miterlimit="10" fill="none"/><path d="M142 127.75h16v19h-16zm0 0" fill="#fff"/><use xlink:href="#f" x="142" y="142.602"/><use xlink:href="#g" x="151.648" y="142.602"/><path d="M180.25 127.75h16v19h-16zm0 0" fill="#fff"/><g fill="#0c0"><use xlink:href="#d" x="180.25" y="142.602"/><use xlink:href="#e" x="191.422" y="142.602"/></g></g></svg>
